icons/robot-two-color.svg

<?xml version="1.0" encoding="UTF-8"?><svg id="uuid-70ecbd4d-04be-48ba-9d46-b698cf75d426" xmlns="http://www.w3.org/2000/svg" viewBox="0 0 50 50"><path d="M8.82,4.93c0-.94-.76-1.7-1.7-1.7s-1.71,.76-1.71,1.7,.76,1.7,1.71,1.7,1.7-.76,1.7-1.7Z" fill="#ffcd00"/><path d="M47.55,4.94c0-.93-.75-1.68-1.68-1.68s-1.68,.75-1.68,1.68,.75,1.68,1.68,1.68,1.68-.75,1.68-1.68Z" fill="#ffcd00"/><path d="M45.71,14.66h-3.3v-4.43c0-1.05-.85-1.91-1.91-1.91H12.79c-1.05,0-1.91,.85-1.91,1.91v4.43h-3.82c-1.05,0-1.91,.85-1.91,1.91v6.21c0,1.05,.86,1.91,1.91,1.91h3.82v4.22c0,1.05,.86,1.91,1.91,1.91h9.31v5.95H9.26c-.82,0-1.49,.67-1.49,1.49v11.04H45.52v-11.04c0-.82-.67-1.49-1.49-1.49h-13.31v-5.95h9.78c1.05,0,1.91-.85,1.91-1.91v-4.22h3.3c1.05,0,1.91-.85,1.91-1.91v-6.21c0-1.05-.85-1.91-1.91-1.91Zm-28.4,3.6c-1.21,0-2.2-.99-2.2-2.2s.99-2.2,2.2-2.2,2.2,.99,2.2,2.2-.99,2.2-2.2,2.2Zm15.11,0c-1.21,0-2.2-.99-2.2-2.2s.99-2.2,2.2-2.2,2.2,.99,2.2,2.2-.99,2.2-2.2,2.2Z" fill="#ffcd00"/><path d="M44.79,12.02V6.1c1.29-.2,2.29-1.31,2.29-2.66,0-1.49-1.21-2.7-2.7-2.7s-2.7,1.21-2.7,2.7c0,1.28,.89,2.34,2.09,2.62v5.83h-2.08v-3.4c0-1.61-1.31-2.93-2.93-2.93H11.04c-1.61,0-2.93,1.31-2.93,2.93v3.4h-2.08V6.11c1.31-.2,2.32-1.32,2.32-2.68,0-1.5-1.22-2.73-2.73-2.73S2.89,1.92,2.89,3.43c0,1.29,.91,2.37,2.12,2.65v5.84c-1.47,.15-2.63,1.39-2.63,2.9v6.21c0,1.61,1.31,2.93,2.93,2.93h2.8v3.2c0,1.61,1.31,2.93,2.93,2.93h8.29v3.91H7.51c-1.38,0-2.51,1.13-2.51,2.51v11.55c0,.28,.23,.51,.51,.51H44.28c.14,.01,.27-.04,.36-.14s.15-.23,.15-.36v-11.56c0-1.38-1.13-2.51-2.51-2.51h-12.29v-3.91h8.76c1.61,0,2.93-1.31,2.93-2.93v-3.2h2.28c1.61,0,2.93-1.31,2.93-2.93v-6.21c0-1.33-.89-2.44-2.1-2.8Zm-2.09-8.58c0-.93,.75-1.68,1.68-1.68s1.68,.75,1.68,1.68-.75,1.68-1.68,1.68-1.68-.75-1.68-1.68Zm-38.79-.01c0-.94,.76-1.7,1.71-1.7s1.7,.76,1.7,1.7-.76,1.7-1.7,1.7-1.71-.76-1.71-1.7Zm1.4,19.51c-1.05,0-1.91-.85-1.91-1.91v-6.21c0-1.05,.86-1.91,1.91-1.91h2.8v10.02h-2.8Zm38.46,13.56v11.05H6.02v-11.05c0-.82,.67-1.49,1.49-1.49H42.29c.82,0,1.49,.67,1.49,1.49Zm-14.8-2.51h-8.62v-3.91h8.62v3.91Zm11.69-6.83c0,1.05-.85,1.91-1.91,1.91H11.04c-1.05,0-1.91-.85-1.91-1.91V8.49c0-1.05,.86-1.91,1.91-1.91h27.72c1.05,0,1.91,.85,1.91,1.91V27.15Zm5.21-6.13c0,1.05-.85,1.91-1.91,1.91h-2.28V12.91h2.28c1.05,0,1.91,.85,1.91,1.91v6.21Z"/><path d="M20.54,16.06c0-1.78-1.45-3.22-3.22-3.22s-3.22,1.45-3.22,3.22,1.45,3.22,3.22,3.22,3.22-1.45,3.22-3.22Zm-3.22,2.2c-1.21,0-2.2-.99-2.2-2.2s.99-2.2,2.2-2.2,2.2,.99,2.2,2.2-.99,2.2-2.2,2.2Z"/><path d="M32.42,12.83c-1.78,0-3.22,1.45-3.22,3.22s1.45,3.22,3.22,3.22,3.22-1.45,3.22-3.22-1.45-3.22-3.22-3.22Zm0,5.42c-1.21,0-2.2-.99-2.2-2.2s.99-2.2,2.2-2.2,2.2,.99,2.2,2.2-.99,2.2-2.2,2.2Z"/><path d="M30.52,22.63c-1.57,1.24-3.47,1.9-5.48,1.9s-4-.7-5.57-1.97c-.22-.18-.54-.14-.72,.08-.18,.22-.14,.54,.08,.72,1.75,1.42,3.96,2.2,6.21,2.2s4.36-.73,6.11-2.12c.22-.17,.26-.5,.08-.72-.17-.22-.5-.26-.72-.08Z"/></svg>

<svg id="aa115954-e24d-4c03-b13f-a2dbad62e852" data-name="ICONS" xmlns="http://www.w3.org/2000/svg" viewBox="0 0 50 50"><path d="M8.82,4.93a1.71,1.71,0,1,0-1.7,1.7A1.71,1.71,0,0,0,8.82,4.93Z" fill="#fdd600"/><path d="M47.55,4.94a1.68,1.68,0,1,0-1.67,1.68A1.68,1.68,0,0,0,47.55,4.94Z" fill="#fdd600"/><path d="M45.71,14.66h-3.3V10.24a1.9,1.9,0,0,0-1.9-1.91H12.79a1.91,1.91,0,0,0-1.91,1.91v4.42H7.06a1.92,1.92,0,0,0-1.91,1.91v6.21a1.91,1.91,0,0,0,1.91,1.9h3.82V28.9a1.91,1.91,0,0,0,1.91,1.91H22.1v5.95H9.26a1.49,1.49,0,0,0-1.49,1.49v11H45.52v-11A1.49,1.49,0,0,0,44,36.76H30.72V30.81h9.79a1.9,1.9,0,0,0,1.9-1.91V24.68h3.3a1.91,1.91,0,0,0,1.91-1.9V16.57A1.92,1.92,0,0,0,45.71,14.66Zm-28.4,3.61a2.21,2.21,0,1,1,2.2-2.21A2.21,2.21,0,0,1,17.31,18.27Zm15.11,0a2.2,2.2,0,1,1,2.2-2.2A2.21,2.21,0,0,1,32.42,18.26Z" fill="#fdd600"/><path d="M44.79,12V6.1a2.7,2.7,0,1,0-1,0v5.83H41.68V8.49a2.93,2.93,0,0,0-2.92-2.93H11A2.93,2.93,0,0,0,8.11,8.49v3.4H6V6.11a2.71,2.71,0,1,0-1,0v5.84a2.93,2.93,0,0,0-2.63,2.9V21A2.93,2.93,0,0,0,5.31,24h2.8v3.19A2.93,2.93,0,0,0,11,30.08h8.29V34H7.51A2.51,2.51,0,0,0,5,36.5V48.05a.51.51,0,0,0,.51.51H44.28a.51.51,0,0,0,.37-.15.51.51,0,0,0,.14-.36V36.5A2.5,2.5,0,0,0,42.29,34H30V30.08h8.77a2.93,2.93,0,0,0,2.92-2.93V24H44A2.93,2.93,0,0,0,46.89,21V14.82A2.92,2.92,0,0,0,44.79,12ZM42.7,3.44a1.68,1.68,0,1,1,1.68,1.68A1.68,1.68,0,0,1,42.7,3.44Zm-38.79,0a1.71,1.71,0,1,1,3.41,0,1.71,1.71,0,0,1-3.41,0Zm1.4,19.5A1.91,1.91,0,0,1,3.4,21V14.82a1.92,1.92,0,0,1,1.91-1.91h2.8v10ZM43.77,36.5v11H6v-11A1.49,1.49,0,0,1,7.51,35H42.29A1.49,1.49,0,0,1,43.77,36.5ZM29,34H20.35V30.08H29Zm11.69-6.84a1.9,1.9,0,0,1-1.9,1.91H11a1.91,1.91,0,0,1-1.91-1.91V8.49A1.91,1.91,0,0,1,11,6.58H38.76a1.9,1.9,0,0,1,1.9,1.91V27.15ZM45.87,21A1.91,1.91,0,0,1,44,22.93H41.68v-10H44a1.92,1.92,0,0,1,1.91,1.91Z" fill="#231f20"/><path d="M20.54,16.06a3.23,3.23,0,1,0-3.23,3.23A3.23,3.23,0,0,0,20.54,16.06Zm-3.23,2.21a2.21,2.21,0,1,1,2.2-2.21A2.21,2.21,0,0,1,17.31,18.27Z" fill="#231f20"/><path d="M32.42,12.83a3.23,3.23,0,1,0,3.23,3.23A3.23,3.23,0,0,0,32.42,12.83Zm0,5.43a2.2,2.2,0,1,1,2.2-2.2A2.21,2.21,0,0,1,32.42,18.26Z" fill="#231f20"/><path d="M30.52,22.63a8.84,8.84,0,0,1-11-.07.52.52,0,0,0-.65.8A9.94,9.94,0,0,0,25,25.55a9.76,9.76,0,0,0,6.12-2.12.51.51,0,0,0,.08-.71A.51.51,0,0,0,30.52,22.63Z" fill="#231f20"/></svg>
